X: 18314
T: Humours Of Tullycrine, The
R: hornpipe
M: 4/4
K: Adorian
ed|:"Am"c2 AB c3 d|"Am"eaag "Em"(3efe dB|"Am" BccA "G"B3 c|"G"d3 e dBGB|
"Am"A^GAB c3 d|"Am"eaag "Em"(3efe dB|"Am"cAAc "G"dBGB|1 "Am"(3ABA AG A2 ed:|2 "Am"(3ABA AG A2 (3Bcd||
"Am"ea (3aaa aged|"Am"ea (3aaa aged|"G"eg (3ggg gedg|"Em"eg (3ggg gedB|
"Am"A^GAB c3 d|"Am"eaag "Em"(3efe dB|"Am"cAAc "G"dBGB|"Am"(3ABA AG A2 (3Bcd||
"Am"eaag aged|"Am"eaag aged|"G"eggf ge d2|"Em"(3efg (3fga "G"gedB|
"Am"A^GAB c3 d|"Am"eaag "Em"(3efe dB|"Am"cAAc "G"dBGB|"Am"(3ABA AG A4||

